rospo-dark/16x16/actions/format-text-strikethrough.svg

<svg height="16" viewBox="0 0 16 16" width="16" xmlns="http://www.w3.org/2000/svg"><path d="m4 3v2h6c .42816 0 1 .61414 1 1h2c0-1.6343-1.3198-3-3-3zm-3 4v2h14v-2zm2 3c .006.72062.26893 1.45275.78125 2.03125.51232.57854 1.31045.96875 2.21875.96875h7v-.84375c.0156-.09375 0-.15625 0-.15625v-2h-2v1h-5c-.39787 0-.56691-.10979-.71875-.28125s-.27877-.43937-.28125-.71875z" fill="#d3dae3"/></svg>

<?xml version="1.0" encoding="UTF-8" standalone="no"?>
<svg xmlns="http://www.w3.org/2000/svg" width="22" height="22" viewBox="0 0 22 22">
 <defs>
  <style type="text/css" id="current-color-scheme">
   .ColorScheme-Text { color:#d3dae3; } .ColorScheme-Highlight { color:#5294e2; }
  </style>
 </defs>
 <path style="fill:currentColor;opacity:1" class="ColorScheme-Text" transform="translate(3 3)" d="M 4 3 L 4 5 L 10 5 C 10.42816 5 11 5.61414 11 6 L 13 6 C 13 4.3657 11.6802 3 10 3 L 4 3 z M 1 7 L 1 9 L 15 9 L 15 7 L 1 7 z M 3 10 C 3.006 10.72062 3.26893 11.45275 3.78125 12.03125 C 4.29357 12.60979 5.0917 13 6 13 L 13 13 L 13 12.15625 C 13.0156 12.0625 13 12 13 12 L 13 10 L 11 10 L 11 11 L 6 11 C 5.60213 11 5.43309 10.89021 5.28125 10.71875 C 5.12941 10.54729 5.00248 10.27938 5 10 L 3 10 z"/>
</svg>
